images/plant.svg

<svg width="50" height="50" viewBox="0 0 50 50" fill="none" xmlns="http://www.w3.org/2000/svg">
<path opacity="0.1" fill-rule="evenodd" clip-rule="evenodd" d="M25 50C38.8071 50 50 38.8071 50 25C50 11.1929 38.8071 0 25 0C11.1929 0 0 11.1929 0 25C0 38.8071 11.1929 50 25 50Z" fill="#72B33B"/>
<path d="M33.9654 24.9999H26.0344V22.3041C27.2065 22.1078 28.2859 21.5801 29.145 20.7677C30.2522 19.7207 30.862 18.3286 30.862 16.8478V13.5869C30.862 13.0467 30.3988 12.6087 29.8275 12.6087H28.793C28.4621 12.6087 28.1389 12.6405 27.8266 12.7008C27.4796 11.7664 26.8194 10.9496 25.9213 10.3834L25.5739 10.1643C25.2263 9.94523 24.7736 9.94523 24.4261 10.1643L24.0788 10.3834C23.1806 10.9496 22.5204 11.7664 22.1734 12.7008C21.861 12.6405 21.5378 12.6087 21.2069 12.6087H20.1724C19.6012 12.6087 19.1379 13.0467 19.1379 13.5869V16.8478C19.1379 18.3286 19.7478 19.7207 20.8549 20.7675C21.714 21.5802 22.7934 22.1078 23.9655 22.3041V24.9999H16.0345C15.4632 24.9999 15 25.4379 15 25.9782V29.8913C15 30.4315 15.4632 30.8696 16.0345 30.8696H17.2672L19.1609 39.2267C19.2632 39.6778 19.6846 40 20.1724 40H29.8276C30.3154 40 30.7368 39.6777 30.8391 39.2267L32.7328 30.8696H33.9655C34.5368 30.8696 35 30.4316 35 29.8913V25.9782C34.9999 25.4379 34.5368 24.9999 33.9654 24.9999ZM25 12.1698C25.4486 12.5177 25.7694 12.9837 25.9261 13.5036C25.579 13.7466 25.2672 14.0324 25 14.3529C24.7328 14.0323 24.421 13.7467 24.0739 13.5036C24.2305 12.9837 24.5513 12.5177 25 12.1698ZM22.3178 19.3841C21.6014 18.7067 21.2069 17.8059 21.2069 16.8478V14.5652C22.728 14.5652 23.9655 15.7354 23.9655 17.1739C23.9655 17.7141 24.4287 18.1522 25 18.1522C25.5713 18.1522 26.0345 17.7142 26.0345 17.1739C26.0345 15.7355 27.272 14.5652 28.7931 14.5652V16.8478C28.7931 17.806 28.3986 18.7067 27.6821 19.3843C26.9658 20.0617 26.0133 20.4348 25.0001 20.4348C23.9868 20.4348 23.0342 20.0616 22.3178 19.3841ZM28.9913 38.0434H21.0087L19.3831 30.8695H30.6169L28.9913 38.0434ZM32.931 28.913H31.8965H18.1034H17.069V26.9565H32.931V28.913Z" fill="#72B33B"/>
</svg>

<svg width="50" height="50" fill="none" xmlns="http://www.w3.org/2000/svg"><path opacity=".1" fill-rule="evenodd" clip-rule="evenodd" d="M25 50c13.807 0 25-11.193 25-25S38.807 0 25 0 0 11.193 0 25s11.193 25 25 25Z" fill="#72B33B"/><path d="M33.965 25h-7.93v-2.696a5.936 5.936 0 0 0 3.11-1.536c1.107-1.047 1.717-2.44 1.717-3.92v-3.261c0-.54-.463-.978-1.034-.978h-1.035c-.33 0-.654.031-.966.092a4.671 4.671 0 0 0-1.906-2.318l-.347-.219c-.348-.219-.8-.219-1.148 0l-.347.22a4.671 4.671 0 0 0-1.906 2.317 5.097 5.097 0 0 0-.966-.092h-1.035c-.57 0-1.034.438-1.034.978v3.26c0 1.482.61 2.874 1.717 3.92a5.934 5.934 0 0 0 3.11 1.537V25h-7.93c-.572 0-1.035.438-1.035.978v3.913c0 .54.463.979 1.035.979h1.232l1.894 8.357c.102.45.524.773 1.011.773h9.656c.487 0 .909-.322 1.011-.773l1.894-8.357h1.233c.57 0 1.034-.438 1.034-.979v-3.913c0-.54-.463-.978-1.035-.978ZM25 12.17c.449.348.77.814.926 1.334a4.757 4.757 0 0 0-.926.849 4.757 4.757 0 0 0-.926-.85c.156-.52.477-.985.926-1.333Zm-2.682 7.214a3.468 3.468 0 0 1-1.111-2.536v-2.283c1.521 0 2.758 1.17 2.758 2.609 0 .54.464.978 1.035.978s1.035-.438 1.035-.978c0-1.438 1.237-2.609 2.758-2.609v2.283c0 .958-.394 1.859-1.11 2.536A3.88 3.88 0 0 1 25 20.434a3.881 3.881 0 0 1-2.682-1.05Zm6.673 18.66H21.01l-1.626-7.174h11.234l-1.626 7.173Zm3.94-9.131H17.069v-1.957h15.862v1.957Z" fill="#72B33B"/></svg>
